X: 22706
T: Lament For Lugh Darcy
R: reel
M: 4/4
K: Ddorian
DC|A,D2E2< F2E/D/|D2<A2 G/E/C3|A,D DE FE2F/E/|D/E/F/G/ A4 ^FG|
A2<d2 c/A/G2E/G/|cd2c E2<D2|^F/G/A2> B2d/A/ G2|AG/E/ D2>D2 D2||

